icons/desktop/16/svg/midi-16.svg

<svg width="16" height="16" viewBox="0 0 16 16" fill="none" xmlns="http://www.w3.org/2000/svg">
<path fill-rule="evenodd" clip-rule="evenodd" d="M9.99971 0.5C10.9792 0.500011 11.9 0.550061 12.7536 0.632812L13.5847 0.725586L13.8386 0.770508C15.0861 1.04751 15.9997 2.15025 15.9997 3.45801L16.0017 12.9922C16.0016 13.5066 15.7783 14.0279 15.3405 14.3691L15.3396 14.3701C14.8314 14.7649 14.1916 14.9999 13.4997 15C11.7414 15 10.3357 13.4862 10.5153 11.6934L10.5339 11.5439C10.7664 10.0182 12.1702 9 13.6286 9H14.5007L14.4997 5.93652C12.8953 5.80353 11.3903 5.75001 10.0007 5.75C8.3964 5.75 6.89094 5.82388 5.49971 5.93945V12.9922C5.49965 13.5158 5.26815 14.0389 4.82686 14.3789C4.10328 14.935 3.1222 15.1637 2.11787 14.8721C1.20592 14.6069 0.46868 13.8901 0.164749 12.998L0.110061 12.8174C-0.426566 10.8197 1.07316 8.99902 3.00069 8.99902H3.99971V3.45801C3.99971 2.064 5.03759 0.900803 6.41377 0.726562C7.49131 0.589945 8.69351 0.5 9.99971 0.5ZM13.6286 10.5C12.8331 10.5 12.1691 11.0355 12.029 11.707L12.0075 11.8428C11.9172 12.7439 12.6201 13.5 13.4997 13.5C13.8475 13.4999 14.166 13.3826 14.4196 13.1855C14.4612 13.1525 14.5016 13.0846 14.5017 12.9922L14.5007 10.5H13.6286ZM3.00069 10.499C2.03828 10.499 1.28311 11.4045 1.5583 12.4287C1.68496 12.9014 2.07173 13.2964 2.53682 13.4316C3.0682 13.5859 3.55548 13.4641 3.91182 13.1904L3.94502 13.1572C3.97614 13.1179 3.99967 13.0612 3.99971 12.9922V10.499H3.00069ZM9.99971 2C8.76191 2 7.62271 2.08448 6.60225 2.21387C5.96884 2.29398 5.49971 2.8263 5.49971 3.45801V4.43359C6.8949 4.32105 8.39997 4.25 10.0007 4.25C11.3928 4.25001 12.8975 4.30162 14.4997 4.43066V3.45801C14.4997 2.82685 14.0299 2.2947 13.3952 2.21387C12.3751 2.08457 11.237 2.00001 9.99971 2Z" fill="black"/>
</svg>

<!-- This Source Code Form is subject to the terms of the Mozilla Public
   - License, v. 2.0. If a copy of the MPL was not distributed with this
   - file, You can obtain one at http://mozilla.org/MPL/2.0/. -->
<svg xmlns="http://www.w3.org/2000/svg" width="16" height="16" fill="context-fill" fill-opacity="context-fill-opacity" viewBox="0 0 16 16">
    <path fill-rule="evenodd" d="M10 .5c.98 0 1.9.05 2.754.133l.83.093.255.045a2.75 2.75 0 0 1 2.16 2.687l.003 9.534c0 .515-.224 1.036-.661 1.377l-.001.001a3 3 0 0 1-4.824-2.677l.018-.15C10.766 10.019 12.17 9 13.629 9h.872L14.5 5.937A55 55 0 0 0 10 5.75c-1.604 0-3.11.074-4.5.19v7.052c0 .524-.232 1.047-.673 1.387a3.02 3.02 0 0 1-2.71.493 2.96 2.96 0 0 1-1.952-1.874l-.055-.18A3.005 3.005 0 0 1 3 8.998h1V3.458A2.754 2.754 0 0 1 6.414.727 29 29 0 0 1 10 .5m3.629 10c-.796 0-1.46.536-1.6 1.207l-.021.136a1.5 1.5 0 0 0 2.412 1.342.25.25 0 0 0 .082-.193L14.5 10.5zM3 10.499c-.963 0-1.718.906-1.443 1.93.127.472.514.867.979 1.003a1.52 1.52 0 0 0 1.375-.242l.033-.033A.27.27 0 0 0 4 12.992V10.5zM10 2c-1.238 0-2.377.084-3.398.214A1.254 1.254 0 0 0 5.5 3.458v.976a56 56 0 0 1 9-.003v-.973c0-.631-.47-1.163-1.105-1.244A27 27 0 0 0 10 2" clip-rule="evenodd" />
</svg>
